Newaita-dark/actions/16/format-list-unordered.svg

<svg height="16" viewBox="0 0 16 16" width="16" xmlns="http://www.w3.org/2000/svg"><g fill="#e0e0e0"><path d="m14.222656 3.433594h-12.570312c-.179688 0-.328125-.148438-.328125-.332032v-.660156c0-.183594.148437-.332031.328125-.332031h12.570312c.183594 0 .332032.148437.332032.332031v.660156c0 .183594-.148438.332032-.332032.332032zm0 0"/><path d="m11.578125 14.347656h-9.925781c-.179688 0-.328125-.148437-.328125-.332031v-.660156c0-.183594.148437-.332031.328125-.332031h9.925781c.179687 0 .328125.148437.328125.332031v.660156c0 .183594-.148438.332031-.328125.332031zm0 0"/><path d="m11.578125 10.710938h-3.96875c-.183594 0-.332031-.148438-.332031-.332032v-.660156c0-.183594.148437-.332031.332031-.332031h3.96875c.179687 0 .328125.148437.328125.332031v.660156c0 .183594-.148438.332032-.328125.332032zm0 0"/><path d="m14.222656 7.070312h-9.921875c-.183593 0-.332031-.148437-.332031-.332031v-.660156c0-.183594.148438-.332031.332031-.332031h9.921875c.183594 0 .332032.148437.332032.332031v.660156c0 .183594-.148438.332031-.332032.332031zm0 0"/></g></svg>

<svg xmlns="http://www.w3.org/2000/svg" xmlns:xlink="http://www.w3.org/1999/xlink" width="16px" height="16px" viewBox="0 0 16 16" version="1.1">
<g id="surface1">
     <defs>
  <style id="current-color-scheme" type="text/css">
   .ColorScheme-Text { color:#eeeeee; } .ColorScheme-Highlight { color:#424242; }
  </style>
 </defs>
<path style="fill:currentColor" class="ColorScheme-Text" d="M 14.222656 3.433594 L 1.652344 3.433594 C 1.472656 3.433594 1.324219 3.285156 1.324219 3.101562 L 1.324219 2.441406 C 1.324219 2.257812 1.472656 2.109375 1.652344 2.109375 L 14.222656 2.109375 C 14.40625 2.109375 14.554688 2.257812 14.554688 2.441406 L 14.554688 3.101562 C 14.554688 3.285156 14.40625 3.433594 14.222656 3.433594 Z M 14.222656 3.433594 "/>
     <defs>
  <style id="current-color-scheme" type="text/css">
   .ColorScheme-Text { color:#eeeeee; } .ColorScheme-Highlight { color:#424242; }
  </style>
 </defs>
<path style="fill:currentColor" class="ColorScheme-Text" d="M 11.578125 14.347656 L 1.652344 14.347656 C 1.472656 14.347656 1.324219 14.199219 1.324219 14.015625 L 1.324219 13.355469 C 1.324219 13.171875 1.472656 13.023438 1.652344 13.023438 L 11.578125 13.023438 C 11.757812 13.023438 11.90625 13.171875 11.90625 13.355469 L 11.90625 14.015625 C 11.90625 14.199219 11.757812 14.347656 11.578125 14.347656 Z M 11.578125 14.347656 "/>
     <defs>
  <style id="current-color-scheme" type="text/css">
   .ColorScheme-Text { color:#eeeeee; } .ColorScheme-Highlight { color:#424242; }
  </style>
 </defs>
<path style="fill:currentColor" class="ColorScheme-Text" d="M 11.578125 10.710938 L 7.609375 10.710938 C 7.425781 10.710938 7.277344 10.5625 7.277344 10.378906 L 7.277344 9.71875 C 7.277344 9.535156 7.425781 9.386719 7.609375 9.386719 L 11.578125 9.386719 C 11.757812 9.386719 11.90625 9.535156 11.90625 9.71875 L 11.90625 10.378906 C 11.90625 10.5625 11.757812 10.710938 11.578125 10.710938 Z M 11.578125 10.710938 "/>
     <defs>
  <style id="current-color-scheme" type="text/css">
   .ColorScheme-Text { color:#eeeeee; } .ColorScheme-Highlight { color:#424242; }
  </style>
 </defs>
<path style="fill:currentColor" class="ColorScheme-Text" d="M 14.222656 7.070312 L 4.300781 7.070312 C 4.117188 7.070312 3.96875 6.921875 3.96875 6.738281 L 3.96875 6.078125 C 3.96875 5.894531 4.117188 5.746094 4.300781 5.746094 L 14.222656 5.746094 C 14.40625 5.746094 14.554688 5.894531 14.554688 6.078125 L 14.554688 6.738281 C 14.554688 6.921875 14.40625 7.070312 14.222656 7.070312 Z M 14.222656 7.070312 "/>
</g>
</svg>
